packages/core/src/svgs/prq.svg

<svg width="24" height="24" viewBox="0 0 24 24" fill="none" xmlns="http://www.w3.org/2000/svg">
<g clip-path="url(#clip0_31_16499)">
<path d="M0 0H24V24H0V0Z" fill="#005CC7"/>
<path d="M5.15576 11.5716C5.37733 7.98449 8.35719 5.14307 12 5.14307V8.57164H14.5715V8.14307H15.8572V9.42878H14.5715V9.00021H12V12.0002H15V14.5716H14.5715V15.0002H9.42862V14.5716H9.00005V9.42878H9.42862V8.14307H8.1429V9.42878H8.57148V11.5716H5.15576Z" fill="white"/>
<path d="M14.5714 15.8571V15.4286H12.4285V18.8443C16.0157 18.6227 18.8571 15.6429 18.8571 12H15.4285V14.5714H15.8571V15.8571H14.5714ZM8.14282 14.5714H8.57139V12H5.14282C5.14282 15.7873 8.21268 18.8571 12 18.8571V15.4286H9.42854V15.8571H8.14282V14.5714Z" fill="white"/>
</g>
<defs>
<clipPath id="clip0_31_16499">
<rect width="24" height="24" fill="white"/>
</clipPath>
</defs>
</svg>

<svg xmlns="http://www.w3.org/2000/svg" width="24" height="24" fill="none" viewBox="0 0 24 24"><g clip-path="url(#a)"><path fill="#005CC7" d="M0 0h24v24H0z"/><path fill="#fff" d="M5.156 11.572A6.86 6.86 0 0 1 12 5.143v3.429h2.572v-.429h1.285V9.43h-1.285V9H12v3h3v2.572h-.428V15H9.429v-.428H9V9.429h.429V8.143H8.143V9.43h.428v2.143z"/><path fill="#fff" d="M14.571 15.857v-.428H12.43v3.415A6.86 6.86 0 0 0 18.857 12H15.43v2.571h.428v1.286zm-6.428-1.286h.428V12H5.143A6.857 6.857 0 0 0 12 18.857V15.43H9.429v.428H8.143z"/></g><defs><clipPath id="a"><path fill="#fff" d="M0 0h24v24H0z"/></clipPath></defs></svg>
